X: 552
T: Lady Hope's Reel
%R: reel
N: The title actually has "Rell" instead of "Reel"
Z: 2018 John Chambers <jc:trillian.mit.edu>
B: John Treat - "Gamut for the Fifes", 1779, p.55 #2
F: https://archive.org/details/GamutFortheFifes
F: http://tunearch.org/wiki/Lady_Hope%27s_Reel (other versions)
S: https://www.shazam.com/track/10394357/lady-hopes-reel (first bar is different)
N: Only the (ca) is visible in the last bar; the rest is from several online recordings.
M: C|
L: 1/8
K: F
% - - - - - - - - - - - - - - - - - - - - - - - - -
|:\
ABcd c2BA | fagf gGGB |\
ABcd c2BA | BGcA FF/F/ F2 ::\
fcfg a2gf | fcgc acgc |
fcfg a2gf | dfeg ff/f/ f2 |\
fcfg a2gf | gfga bagf |\
fdcB A2df | cABG F2F2 :|
% - - - - - - - - - - - - - - - - - - - - - - - - -
